src/social-python.svg

<?xml version="1.0" encoding="utf-8"?>
<!-- Generated by IcoMoon.io -->
<!DOCTYPE svg PUBLIC "-//W3C//DTD SVG 1.1//EN" "http://www.w3.org/Graphics/SVG/1.1/DTD/svg11.dtd">
<svg version="1.1" xmlns="http://www.w3.org/2000/svg" xmlns:xlink="http://www.w3.org/1999/xlink" width="512" height="512" viewBox="0 0 512 512">
<path fill="#000000" d="M193.46 249.056c3.723-0.67 7.589-1.041 11.586-1.041l-3.122-0.015h103.823c4.503 0 8.806-0.617 12.908-1.754 19.37-5.363 33.345-22.537 33.345-43.663v-87.224c0-24.832-21.15-43.484-46.289-47.606-15.931-2.624-39.258-3.827-55.089-3.749-15.829 0.086-30.981 1.404-44.277 3.749-39.202 6.823-46.345 21.175-46.345 47.606v28.641h96v16h-127.18c-35.628 0-64.538 42.571-64.813 95.242-0.002 0.253-0.007 0.505-0.007 0.758 0 9.523 0.94 18.72 2.685 27.404 7.963 39.666 32.766 68.596 62.135 68.596h15.18v-45.935c0-26.827 20.146-51.733 49.46-57.009zM203.656 127.002c-9.592 0-17.384-7.785-17.384-17.403 0-9.664 7.774-17.52 17.384-17.52 9.574 0 17.399 7.855 17.399 17.52 0.001 9.618-7.809 17.403-17.399 17.403z"></path>
<path fill="#000000" d="M443.951 222.543c-9.171-36.522-32.918-62.543-60.771-62.543h-15.18v40.672c0 33.915-22.286 58.474-49.489 62.681-2.737 0.424-5.483 0.646-8.301 0.646h-103.859c-4.518 0-8.904 0.584-13.049 1.672-19.122 5.018-33.302 20.929-33.302 41.565v87.227c0 24.832 24.977 39.426 49.481 46.551 29.327 8.531 61.267 10.068 96.366 0 23.303-6.66 46.153-20.121 46.153-46.551v-26.463h-96v-16h127.18c25.24 0 47.107-21.365 57.814-52.549 4.48-13.047 7.006-27.81 7.006-43.451 0-11.768-1.433-23.038-4.049-33.457zM307.867 382.82c9.59 0 17.381 7.785 17.381 17.4 0 9.65-7.791 17.521-17.381 17.521-9.577 0-17.399-7.871-17.399-17.521 0-9.63 7.806-17.4 17.399-17.4z"></path>
</svg>

<?xml version="1.0" encoding="utf-8"?>
<!-- Generator: Adobe Illustrator 16.2.1, SVG Export Plug-In . SVG Version: 6.00 Build 0)  -->
<!DOCTYPE svg PUBLIC "-//W3C//DTD SVG 1.1//EN" "http://www.w3.org/Graphics/SVG/1.1/DTD/svg11.dtd">
<svg version="1.1" id="Layer_1" xmlns="http://www.w3.org/2000/svg" xmlns:xlink="http://www.w3.org/1999/xlink" x="0px" y="0px"
	 width="512px" height="512px" viewBox="0 0 512 512" enable-background="new 0 0 512 512" xml:space="preserve">
<g>
	<path d="M193.46,249.056c3.723-0.67,7.589-1.041,11.586-1.041L201.924,248h103.823c4.503,0,8.806-0.617,12.908-1.754
		c19.37-5.363,33.345-22.537,33.345-43.663v-30.822v-56.402c0-24.832-21.15-43.484-46.289-47.606
		c-15.931-2.624-39.258-3.827-55.089-3.749c-15.829,0.086-30.981,1.404-44.277,3.749C167.143,74.576,160,88.928,160,115.359V144h96
		v16H128.82c-35.628,0-64.538,42.571-64.813,95.242C64.005,255.495,64,255.747,64,256c0,9.523,0.94,18.72,2.685,27.404
		C74.648,323.07,99.451,352,128.82,352H144v-2.662v-43.273C144,279.238,164.146,254.332,193.46,249.056z M203.656,127.002
		c-9.592,0-17.384-7.785-17.384-17.403c0-9.664,7.774-17.52,17.384-17.52c9.574,0,17.399,7.855,17.399,17.52
		C221.056,119.217,213.246,127.002,203.656,127.002z"/>
	<path d="M443.951,222.543C434.78,186.021,411.033,160,383.18,160H368v2.626v38.046c0,33.915-22.286,58.474-49.489,62.681
		c-2.737,0.424-5.483,0.646-8.301,0.646H206.351c-4.518,0-8.904,0.584-13.049,1.672C174.18,270.689,160,286.6,160,307.236v32.922
		v54.305c0,24.832,24.977,39.426,49.481,46.551c29.327,8.531,61.267,10.068,96.366,0C329.15,434.354,352,420.893,352,394.463V368
		h-96v-16h127.18c25.24,0,47.107-21.365,57.814-52.549C445.474,286.404,448,271.641,448,256
		C448,244.232,446.567,232.962,443.951,222.543z M307.867,382.82c9.59,0,17.381,7.785,17.381,17.4
		c0,9.65-7.791,17.521-17.381,17.521c-9.577,0-17.399-7.871-17.399-17.521C290.468,390.59,298.274,382.82,307.867,382.82z"/>
</g>
</svg>
